Numix-GalliumOS/64/devices/keyboard.svg

<?xml version="1.0" encoding="UTF-8" standalone="yes"?>
<svg xmlns="http://www.w3.org/2000/svg" xmlns:xlink="http://www.w3.org/1999/xlink" width="64px" height="64px" viewBox="0 0 48 48" version="1.1">
  <g id="surface1">
    <path style=" stroke:none;fill-rule:nonzero;fill:rgb(57.647059%,63.137255%,63.137255%);fill-opacity:1;" d="M 28.5 10.5 C 27.667969 10.5 27 11.167969 27 12 L 27 13.5 C 27 14.328125 26.328125 15 25.5 15 L 24 15 C 23.171875 15 22.5 14.328125 22.5 13.5 L 19.5 13.5 L 19.5 16.5 C 19.5 17.332031 20.167969 18 21 18 L 28.5 18 C 28.707031 18 28.90625 17.957031 29.085938 17.882812 C 29.625 17.65625 30 17.125 30 16.5 L 30 15 C 30 14.171875 30.671875 13.5 31.5 13.5 C 32.328125 13.5 33 14.171875 33 15 L 33 26.792969 C 33 27.621094 33.667969 28.292969 34.5 28.292969 C 35.332031 28.292969 36 27.621094 36 26.792969 L 36 12 C 36 11.167969 35.332031 10.5 34.5 10.5 Z M 28.5 10.5 "/>
    <path style=" stroke:none;fill-rule:nonzero;fill:rgb(71.372549%,74.117647%,74.117647%);fill-opacity:1;" d="M 9 19.5 L 39 19.5 C 40.65625 19.5 42 20.84375 42 22.5 L 42 34.5 C 42 36.15625 40.65625 37.5 39 37.5 L 9 37.5 C 7.34375 37.5 6 36.15625 6 34.5 L 6 22.5 C 6 20.84375 7.34375 19.5 9 19.5 Z M 9 19.5 "/>
    <path style=" stroke:none;fill-rule:nonzero;fill:rgb(43.529412%,54.117647%,57.647059%);fill-opacity:1;" d="M 9 22.5 L 9 25.5 L 12 25.5 L 12 22.5 Z M 13.5 22.5 L 13.5 25.5 L 16.5 25.5 L 16.5 22.5 Z M 18 22.5 L 18 25.5 L 21 25.5 L 21 22.5 Z M 22.5 22.5 L 22.5 25.5 L 25.5 25.5 L 25.5 22.5 Z M 27 22.5 L 27 25.5 L 30 25.5 L 30 22.5 Z M 31.5 22.5 L 31.5 25.5 L 34.5 25.5 L 34.5 22.5 Z M 36 22.5 L 36 25.5 L 37.5 25.5 L 37.5 30 L 39 30 L 39 22.5 Z M 9 27 L 9 30 L 13.5 30 L 13.5 27 Z M 15 27 L 15 30 L 18 30 L 18 27 Z M 19.5 27 L 19.5 30 L 22.5 30 L 22.5 27 Z M 24 27 L 24 30 L 27 30 L 27 27 Z M 28.5 27 L 28.5 30 L 31.5 30 L 31.5 27 Z M 33 27 L 33 30 L 36 30 L 36 27 Z M 9 31.5 L 9 34.5 L 12 34.5 L 12 31.5 Z M 13.5 31.5 L 13.5 34.5 L 28.5 34.5 L 28.5 31.5 Z M 30 31.5 L 30 34.5 L 33 34.5 L 33 31.5 Z M 34.5 31.5 L 34.5 34.5 L 39 34.5 L 39 31.5 Z M 34.5 31.5 "/>
    <path style=" stroke:none;fill-rule:nonzero;fill:rgb(99.215686%,96.470588%,89.019608%);fill-opacity:0.329412;" d="M 34.5 19.5 L 34.5 37.5 L 39 37.5 L 39 19.5 Z M 34.5 19.5 "/>
  </g>
</svg>

<svg xmlns="http://www.w3.org/2000/svg" width="64" height="64" viewBox="0 0 48 48">
 <g>
  <path d="m 28.5 10.5 c -0.832 0 -1.5 0.668 -1.5 1.5 l 0 1.5 c 0 0.828 -0.672 1.5 -1.5 1.5 l -1.5 0 c -0.828 0 -1.5 -0.672 -1.5 -1.5 l -3 0 l 0 3 c 0 0.832 0.668 1.5 1.5 1.5 l 7.5 0 c 0.207 0 0.406 -0.043 0.586 -0.117 c 0.539 -0.227 0.914 -0.758 0.914 -1.383 l 0 -1.5 c 0 -0.828 0.672 -1.5 1.5 -1.5 c 0.828 0 1.5 0.672 1.5 1.5 l 0 11.793 c 0 0.828 0.668 1.5 1.5 1.5 c 0.832 0 1.5 -0.672 1.5 -1.5 l 0 -14.793 c 0 -0.832 -0.668 -1.5 -1.5 -1.5 m -6 0" style="fill:#93a1a1;fill-opacity:1;stroke:none;fill-rule:nonzero"/>
  <path d="m 9 19.5 l 30 0 c 1.656 0 3 1.344 3 3 l 0 12 c 0 1.656 -1.344 3 -3 3 l -30 0 c -1.656 0 -3 -1.344 -3 -3 l 0 -12 c 0 -1.656 1.344 -3 3 -3 m 0 0" style="fill:#b5bcbc;fill-opacity:1;stroke:none;fill-rule:nonzero"/>
  <path d="m 9 22.5 l 0 3 l 3 0 l 0 -3 m 1.5 0 l 0 3 l 3 0 l 0 -3 m 1.5 0 l 0 3 l 3 0 l 0 -3 m 1.5 0 l 0 3 l 3 0 l 0 -3 m 1.5 0 l 0 3 l 3 0 l 0 -3 m 1.5 0 l 0 3 l 3 0 l 0 -3 m 1.5 0 l 0 3 l 1.5 0 l 0 4.5 l 1.5 0 l 0 -7.5 m -30 4.5 l 0 3 l 4.5 0 l 0 -3 m 1.5 0 l 0 3 l 3 0 l 0 -3 m 1.5 0 l 0 3 l 3 0 l 0 -3 m 1.5 0 l 0 3 l 3 0 l 0 -3 m 1.5 0 l 0 3 l 3 0 l 0 -3 m 1.5 0 l 0 3 l 3 0 l 0 -3 m -27 4.5 l 0 3 l 3 0 l 0 -3 m 1.5 0 l 0 3 l 15 0 l 0 -3 m 1.5 0 l 0 3 l 3 0 l 0 -3 m 1.5 0 l 0 3 l 4.5 0 l 0 -3 m -4.5 0" style="fill:#6f8993;fill-opacity:1;stroke:none;fill-rule:nonzero"/>
  <path d="m 34.5 19.5 l 0 18 l 4.5 0 l 0 -18 m -4.5 0" style="fill:#fcf5e3;fill-opacity:0.329;stroke:none;fill-rule:nonzero"/>
 </g>
</svg>
